X:1
T:C Major Oliver Holden, 1800
T:Nahum Tate and Nicholas Brady, 1698 (Psalm 29)  88. 88. (L. M.)
T:Constant Peace No copyright. Transcribed from Plain Psalmody, 1800.
%%score [ 1 2 3 ]
L:1/8
M:4/4
K:C
V:1 treble nm="Treble" snm="Tr."
V:2 treble-8 nm="Tenor" snm="T."
V:3 bass nm="Bass" snm="B."
V:1
 C | C2 E2 G3 c | G2 F2 E3 C | E2 G2 c3 e | d2 c2 !fermata!B2 z G | GE Gc BGBd | cA cd e3 c | %7
 A2 GF EFGf | ed/c/ B2 !fermata!A2 c2 | cG AB c3 d | dA Bc d3 e | eB cd e3 f/d/ | %12
 c2 B2 !fermata!A2 z c | cG EF G3 c | GF ED E3 G | AGAB cBcf | e2 d2 c4 |] %17
V:2
 E | E2 G2 c3 e | c2 d2 c3 E | G2 c2 G3 c | B2 A2 !fermata!G2 z c | cG ce dBdf | e2 e2 c3 A | %7
w: 1.~Je-|ho- vah, with a-|ma- zing noise, The|wat- ery clouds in|sun- der breaks; The|o- * cean * trem- * * bles|at His voice, When|
 c2 c2 A2 A2 | A2 ^G2 !fermata!A2 e2 | ec cd e3 d | Bc BA B3 c | cG AB c3 A | %12
w: He from heav'n in|thun- der speaks. God|rules * the * an- gry|floods * on * high; His|bound- * less * sway shall|
 A2 ^G2 !fermata!A2 z =G | Gc cd c3 e | ed cB c3 c | c3 f e2 d2 | c2 B2 c4 |] %17
w: ne- ver cease; His|peo- * ple * He'll with|strength * sup- * ply, And|bless His own with|con- strant peace.|
V:3
 C, | C,2 C,2 C,3 C, | C,2 G,,2 C,3 C, | C,2 C,2 C,3 C, | D,2 D,2 !fermata!G,2 z C, | %5
 E,2 C,2 G,2 G,2 | A,2 E,2 A,3 E, | F,2 E,D, C,D, E, F,/G,/ | A,2 E,2 !fermata!A,,2 C,2 | %9
 C,2 C,2 C,3 C, | G,2 G,2 G,3 C, | C,D, E,D, C,3 D, | E,2 E,2 !fermata!A,,2 z C, | C,2 C,2 C,3 C, | %14
 C,2 G,,2 C,3 C, | F,E,F,G, E,2 F,2 | G,2 G,2 C,4 |] %17

